X: 3
T:Shepherds' Hey,  Ferris - 'Shepherds' Aid'
M:4/4
L:1/8
Q:120
S:Ferris - Shepherds' Aid
R:Hornpipe
A:Bidford
P:A2(AB)6A
K:G
P:A
c|B>cd>B c2c2  |B>cd>B A2A2|B>cd>B c2Bc|d2D2 G3A||
P:B
B2G2   c2>>A2|B2G2   A4  |B>cd>B c2Bc|d2D2 G3||

